X:1
T:The Peace of God
T:The Peace of God
T:Charles Brenton Widmeyer
T:J. E. Jewett, 1911
T:Public Domain Courtesy of the Cyber Hymnal™
T:Public Domain Courtesy of the Cyber Hymnal™
C:Charles Brenton Widmeyer
Z:Public Domain
Z:Courtesy of the Cyber Hymnal™
%%score ( 1 2 ) 3
L:1/8
Q:1/4=105
M:6/8
K:Eb
V:1 treble 
V:2 treble 
V:3 bass 
V:1
 [GB] | [GB]2 [EG] [EG]2 E | [CG]2 [DF] E2 E | [DF]2 [DF] [DF]2 [EG] | [FA]2 [EG] [DF]2 [AB] | %5
w: 1.~The|peace of God— O|bless- èd peace, That|fills the heart and|calms our fears, That|
w: 2.~The|peace of God— O|peace di- vine, That|bids our rest- less|souls be still, Till|
w: 3.~The|peace of God— O|rest- ful peace, Thro’|all life’s chang- ing|scenes be- low; In|
w: 4.~Au-|thor of peace, to|Thee we raise Our|prayer for strength, to|e’er en- dure The|
 [Ge]2 [Ge] [Ge]2 [GB] | [Ac]2 [Ae] [GB]2 E | [EG]2 [EG] [EG]2 E | [DG]2 [DF] E2 || %9
w: bids our soul’s wild|tu- mult cease, And|gives us sun- light|thro’ our tears.|
w: thro’ the clouds the|sun doth shine, And|we be- hold His|per- fect will.|
w: this we’ll rest till|life shall cease, And|Heav’n’s e- ter- nal|peace we know.|
w: ills we meet, till|all our days Find|rest in Thee, Thy|peace se- cure.|
"^Refrain" [GB] | [GB]4 [^F=A][GB] | [Ac]>[GB][^F=A] [GB]2 E | [EG]4 [DF][EG] | %13
w: ||||
w: We’ll|rest in this|won- der- ful peace, So|blest and so|
w: ||||
w: ||||
 [EB]>[DA][EG] [DF]2 [GB]/[GB]/ | [Ge]3- [Ge]2 [Ge] | [Af]>[Ae][Ac] !fermata![Ae]2 E/F/ | %16
w: |||
w: filled with God’s love, Till our|souls * find|hap- py re- lease, And we|
w: |||
w: |||
 (z2 [EG]2) E x | [DG]>[DG][DF] E2 |] %18
w: ||
w: * reach|the man- sions a-|
w: ||
w: ||
V:2
 x | x5 E | x3 E2 E | x6 | x6 | x6 | x5 E | x5 E | x3 E2 || x | x6 | x5 E | x6 | x6 | x6 | x6 | %16
 (G3- E/E/E) x | x3 E2 |] %18
V:3
 [E,E] | [E,E]2 [E,B,] [E,B,]2 [E,G,] | [B,,B,]2 [B,,A,] [E,G,]2 [E,G,] | %3
 [B,,B,]2 [B,,B,] [B,,B,]2 [B,,B,] | [B,,B,]2 [B,,B,] [B,,B,]2 [D,B,] | %5
 [E,B,]2 [E,B,] [E,B,]2 [E,E] | [A,E]2 [A,C] [E,E]2 [E,G,] | [C,G,]2 [C,G,] [C,G,]2 [C,G,] | %8
 [B,,B,]2 [B,,A,] [E,G,]2 || z | z2 [E,E] [E,E][E,E][E,E] | [E,E]>[E,E][E,E] [E,E]2 z | %12
 z2 [E,B,] [E,B,][A,B,][G,B,] | [G,B,]>[F,B,][E,B,] [B,,B,]2 z | z2 [E,B,]/[E,B,]/ [E,B,]2 [E,_D] | %15
 [A,C]>[A,C][A,E] !fermata![A,C]2 z | z2 [C,G,]/[C,G,]/ [C,G,]2 [C,G,] | %17
 [B,,B,]>[B,,B,][B,,A,] [E,G,]2 |] %18

